logo/polymer.svg

<?xml version="1.0" encoding="UTF-8" standalone="no"?>
<svg width="256px" height="178px" viewBox="0 0 256 178" version="1.1" xmlns="http://www.w3.org/2000/svg" xmlns:xlink="http://www.w3.org/1999/xlink" preserveAspectRatio="xMidYMid">
	<g transform="translate(-1.000000, 0.000000)" fill="none">
		<g transform="translate(51.398438, 0.000000)">
			<path d="M103.202016,177.979687 L0.795164062,0.6046875 L52.0021172,0.6046875 L154.408969,177.979687 L103.202016,177.979687 L103.202016,177.979687 Z" fill="#FF4081"></path>
			<path d="M103.202016,177.979687 L128.802469,133.635937 L154.408969,177.979687 L103.202016,177.979687 L103.202016,177.979687 Z" fill-opacity="0.2" fill="#FFFFFF"></path>
			<path d="M77.6015625,133.635937 L103.202016,177.979687 L128.802469,133.635937 L77.6025703,133.635937 L77.6015625,133.635937 L77.6015625,133.635937 Z" fill-opacity="0.1" fill="#FFFFFF"></path>
			<path d="M52.0011094,89.2921875 L77.6015625,133.635937 L103.202016,89.2921875 L52.0021172,89.2921875 L52.0011094,89.2921875 L52.0011094,89.2921875 Z" fill-opacity="0.1" fill="#000000"></path>
			<path d="M52.0011094,89.2921875 L77.6015625,44.9484375 L103.202016,89.2921875 L52.0021172,89.2921875 L52.0011094,89.2921875 L52.0011094,89.2921875 Z" fill-opacity="0.2" fill="#000000"></path>
			<path d="M26.4016641,44.9484375 L52.0021172,89.2921875 L77.6025703,44.9484375 L26.4026719,44.9484375 L26.4016641,44.9484375 L26.4016641,44.9484375 Z" fill-opacity="0.3" fill="#000000"></path>
			<path d="M26.4016641,44.9484375 L52.0021172,0.6046875 L77.6025703,44.9484375 L26.4026719,44.9484375 L26.4016641,44.9484375 L26.4016641,44.9484375 Z" fill-opacity="0.4" fill="#000000"></path>
			<path d="M0.795164063,0.6046875 L26.4016641,44.9484375 L52.0021172,0.6046875 L0.795164063,0.6046875 L0.795164063,0.6046875 Z" fill-opacity="0.5" fill="#000000"></path>
		</g>
		<g transform="translate(0.000000, 44.343750)">
			<path d="M52.1936016,133.635937 L0.986648438,44.9484375 L26.5931484,0.6046875 L103.399547,133.635937 L52.1925938,133.635937 L52.1936016,133.635937 L52.1936016,133.635937 Z" fill="#536DFE"></path>
			<path d="M52.1936016,133.635938 L77.8001016,89.2921875 L103.400555,133.635938 L52.1936016,133.635938 L52.1936016,133.635938 Z" fill-opacity="0.2" fill="#FFFFFF"></path>
			<path d="M26.5931484,89.2921875 L52.1936016,133.635938 L77.8001016,89.2921875 L26.5931484,89.2921875 L26.5931484,89.2921875 Z" fill-opacity="0.1" fill="#FFFFFF"></path>
			<path d="M26.5931484,89.2921875 L52.1936016,44.9484375 L77.8001016,89.2921875 L26.5931484,89.2921875 L26.5931484,89.2921875 Z"></path>
			<path d="M0.986648437,44.9484375 L26.5931484,89.2921875 L52.1936016,44.9484375 L0.986648437,44.9484375 L0.986648437,44.9484375 Z" fill-opacity="0.1" fill="#000000"></path>
			<path d="M0.986648437,44.9484375 L26.5931484,0.6046875 L52.1936016,44.9484375 L0.986648437,44.9484375 L0.986648437,44.9484375 Z" fill-opacity="0.2" fill="#000000"></path>
		</g>
		<g transform="translate(26.203125, 0.000000)">
			<path d="M25.9904766,89.2921875 L0.390023438,44.9484375 L25.9904766,0.6046875 L51.5969766,44.9484375 L25.9904766,89.2921875 L25.9904766,89.2921875 Z" fill="#303F9F"></path>
			<path d="M51.5969766,44.9484375 L25.9904766,0.6046875 L0.390023438,44.9484375 L51.5969766,44.9484375 L51.5969766,44.9484375 Z" fill-opacity="0.2" fill="#000000"></path>
		</g>
		<g transform="translate(179.390625, 88.687500)">
			<path d="M26.4157734,89.2921875 L0.809273437,44.9484375 L26.4157734,0.6046875 L52.0162266,44.9484375 L26.4157734,89.2921875 L26.4157734,89.2921875 Z" fill="#3F51B5"></path>
			<path d="M52.0162266,44.9484375 L26.4157734,89.2921875 L0.809273437,44.9484375 L52.0162266,44.9484375 L52.0162266,44.9484375 Z" fill-opacity="0.2" fill="#000000"></path>
		</g>
		<g transform="translate(154.195312, 0.000000)">
			<path d="M77.2115391,133.635937 L0.405140625,0.6046875 L51.6120937,0.6046875 L102.819047,89.2921875 L77.2125469,133.635937 L77.2115391,133.635937 L77.2115391,133.635937 Z" fill="#7986CB"></path>
			<path d="M51.6110859,89.2921875 L77.2115391,133.635938 L102.818039,89.2921875 L51.6110859,89.2921875 L51.6110859,89.2921875 Z" fill-opacity="0.2" fill="#FFFFFF"></path>
			<path d="M51.6110859,89.2921875 L77.2115391,44.9484375 L102.818039,89.2921875 L51.6110859,89.2921875 L51.6110859,89.2921875 Z" fill-opacity="0.1" fill="#FFFFFF"></path>
			<path d="M26.0045859,44.9484375 L51.6110859,0.6046875 L77.2115391,44.9484375 L26.0045859,44.9484375 L26.0045859,44.9484375 Z" fill-opacity="0.1" fill="#000000"></path>
			<path d="M0.405140625,0.6046875 L26.0055938,44.9484375 L51.6120937,0.6046875 L0.405140625,0.6046875 L0.405140625,0.6046875 Z" fill-opacity="0.2" fill="#000000"></path>
		</g>
	</g>
</svg>

<svg viewBox="0 0 256 178" xmlns="http://www.w3.org/2000/svg"><g transform="translate(-1 0)"><g transform="translate(51.3984 0)"><path fill="#FF4081" d="M103.2 177.97L.79.59h51.2l102.4 177.37h-51.21v0Z"/><g fill="#FFF" fill-opacity=".2"><path d="M103.2 177.97l25.6-44.35 25.6 44.34h-51.21v0Z"/><path fill-opacity=".1" d="M77.6 133.63l25.6 44.34 25.6-44.35H77.6h-.01v0Z"/></g><g fill-opacity=".1"><path d="M52 89.29l25.6 44.34 25.6-44.35H52h-.01v0Z"/><path fill-opacity=".2" d="M52 89.29l25.6-44.35 25.6 44.34H52h-.01v0Z"/><path fill-opacity=".3" d="M26.4 44.94L52 89.28l25.6-44.35H26.4h-.01v0Z"/><path fill-opacity=".4" d="M26.4 44.94L52 .59l25.6 44.34H26.4h-.01v0Z"/><path fill-opacity=".5" d="M.79.6l25.6 44.34L51.99.59H.78v0Z"/></g></g><g transform="translate(0 44.3438)"><path fill="#536DFE" d="M52.19 133.63L.98 44.94 26.58.59l76.8 133.03H52.17h0v0Z"/><g fill="#FFF" fill-opacity=".2"><path d="M52.19 133.63l25.6-44.35 25.6 44.34H52.18v0Z"/><path fill-opacity=".1" d="M26.59 89.29l25.6 44.34 25.6-44.35H26.58v0Z"/></g><path fill="none" d="M26.59 89.29l25.6-44.35 25.6 44.34H26.58v0Z"/><g fill-opacity=".1"><path d="M.98 44.94l25.6 44.34 25.6-44.35H.97v0Z"/><path fill-opacity=".2" d="M.98 44.94L26.58.59l25.6 44.34H.97v0Z"/></g></g><g transform="translate(26.2031 0)"><path fill="#303F9F" d="M25.99 89.29L.38 44.94 25.98.59l25.6 44.34 -25.61 44.34v0Z"/><path fill-opacity=".2" d="M51.59 44.94L25.98.59 .37 44.93h51.2v0Z"/></g><g transform="translate(179.391 88.6875)"><path fill="#3F51B5" d="M26.41 89.29L.8 44.94 26.4.59 52 44.93 26.39 89.27v0Z"/><path fill-opacity=".2" d="M52.01 44.94L26.4 89.28 .79 44.93h51.2v0Z"/></g><g transform="translate(154.195 0)"><path fill="#7986CB" d="M77.21 133.63L.4.59h51.2l51.2 88.68 -25.61 44.34h-.01v0Z"/><g fill="#FFF" fill-opacity=".2"><path d="M51.61 89.29l25.6 44.34 25.6-44.35H51.6v0Z"/><path fill-opacity=".1" d="M51.61 89.29l25.6-44.35 25.6 44.34H51.6v0Z"/></g><g fill-opacity=".1"><path d="M26 44.94L51.6.59l25.6 44.34H25.99v0Z"/><path fill-opacity=".2" d="M.4.6L26 44.94 51.6.59H.39v0Z"/></g></g></g></svg>
